!!!COM:      Bach, Johann Sebastian
!!!CDT:      1685/03/31/-1750/07/28/
!!!OPR@@GER: Das wohltemperirte Clavier
!!!OVM@@GER: Band I
!!!OPR@ENG:  Well-Tempered Clavier
!!!OVM@ENG:  Book I
!!!OTL:      Fugue
!!!OKY:      E-flat major
!!!ONM:      no. 7
!!!SCT:      BWV 852
!!!OMV:      2
**kern	**kern	**kern	**kern
*clefF4	*clefG2	*	*clefG2
*k[b-e-a-]	*k[b-e-a-]	*	*k[b-e-a-]
*E-:	*E-:	*	*E-:
*M4/4	*M4/4	*	*M4/4
*met(c)	*met(c)	*	*met(c)
*MM78	*MM78	*MM78	*MM78
=1-	=1-	=1-	=1-
1r	1r	1ryy	16b-
.	.	.	16g
.	.	.	16f
.	.	.	16g
.	.	.	16e-
.	.	.	16a-
.	.	.	16g
.	.	.	16a-
.	.	.	8cc
.	.	.	8b-
.	.	.	8r
.	.	.	16an
.	.	.	16f
=2	=2	=2	=2
1r	1r	1ryy	8ee-
.	.	.	8dd
.	.	.	4ccT
.	.	.	16b-
.	.	.	16ff
.	.	.	16dd
.	.	.	16b-
.	.	.	16a-
.	.	.	16ff
.	.	.	16dd
.	.	.	16a-X
=3	=3	=3	=3
1r	16e-	1ryy	8g
.	16d	.	.
.	16c	.	8aa-
.	16d	.	.
.	16B-	.	8gg
.	16e-	.	.
.	16d	.	8ff
.	16e-	.	.
.	8g	.	16ee-
.	.	.	16cc
.	8f	.	16dd
.	.	.	16ee-
.	8r	.	[4ff
.	16d	.	.
.	16B-	.	.
=4	=4	=4	=4
1r	8a-	1ryy	16ff]
.	.	.	16ee-
.	8g	.	16ff
.	.	.	16gg
.	4fT	.	16aa-
.	.	.	16ff
.	.	.	16b-
.	.	.	16aa-
.	16e-	.	8gg
.	16b-	.	.
.	16g	.	16ee-
.	16f	.	16gg
.	16e-	.	[4ccc
.	16cc	.	.
.	16an	.	.
.	16f	.	.
=5	=5	=5	=5
1r	16d	1ryy	8ccc]
.	16an	.	.
.	16f	.	16dd
.	16e-	.	16ff
.	16d-	.	[4bb-
.	16b-	.	.
.	16g	.	.
.	16e-	.	.
.	16c	.	8bb-]
.	16g	.	.
.	16e-	.	16cc
.	16c	.	16ee-
.	16dn	.	8aa-
.	16b-	.	.
.	16e-	.	8gg
.	16cc	.	.
=6	=6	=6	=6
16B-	8dd	1ryy	4ff
16G	.	.	.
16F	8dd-	.	.
16G	.	.	.
16E-	8cc	.	8gg
16A-	.	.	.
16G	8b-	.	8ddn
16A-	.	.	.
8c	16a-	.	4.ee-
.	16g	.	.
8B-	16a-	.	.
.	16b-	.	.
8r	[4cc	.	.
16An	.	.	8ff
16F	.	.	.
=7	=7	=7	=7
8e-	16cc]	1ryy	4.gg
.	16b-	.	.
8d	16cc	.	.
.	16dd	.	.
4cT	16ee-	.	.
.	16cc	.	.
.	16f	.	8aan
.	16ee-	.	.
16B-	8dd	.	[2bb-
16f	.	.	.
16d	8ff	.	.
16B-	.	.	.
16A-X	8dd	.	.
16f	.	.	.
16d	8b-	.	.
16A-	.	.	.
=8	=8	=8	=8
8G	8ee-	1ryy	16bb-]
.	.	.	16bb-
8e-	8r	.	16gg
.	.	.	16ee-
8r	4r	.	16dd-
.	.	.	16bb-
8E-	.	.	16gg
.	.	.	16dd-
16A-	8r	.	8cc
16e-	.	.	.
16c	8ee-	.	8ee-
16A-	.	.	.
16G	8cc	.	[4aa-
16e-	.	.	.
16c	8a-	.	.
16G	.	.	.
=9	=9	=9	=9
8F	8dd	1ryy	16aa-]
.	.	.	16aa-
8d	8r	.	16ff
.	.	.	16dd
8r	4r	.	16cc
.	.	.	16aa-
8D	.	.	16ff
.	.	.	16cc
16G	8r	.	8b-
16d	.	.	.
16B-	8dd	.	8dd
16G	.	.	.
16F	8b-	.	[4gg
16d-	.	.	.
16B-	8g	.	.
16G	.	.	.
=10	=10	=10	=10
16En	8cc	1ryy	4gg_
16c	.	.	.
16G	8b-	.	.
16E	.	.	.
16F	[4a-	.	16gg]
16c	.	.	16cc
16A-	.	.	16dd
16F	.	.	16ee-
16D	16a-]	.	4.ff
16B-	16cc	.	.
16F	16b-	.	.
16D	16a-	.	.
16E-	4g	.	.
16B-	.	.	.
16G	.	.	[8ee-
16E-	.	.	.
=11	=11	=11	=11
8BB-	4f	1ryy	16ee-]
.	.	.	16dd
8A-	.	.	16cc
.	.	.	16dd
8G	[4b-	.	16b-
.	.	.	16ee-
8F	.	.	16dd
.	.	.	16ee-
16E-	8b-]	.	8gg
16C	.	.	.
16D	16a-	.	8ff
16E-	16g	.	.
[4F	8a-	.	8r
.	8f	.	16dd
.	.	.	16b-
=12	=12	=12	=12
*	*clefF4	*	*
16F]	8d	1ryy	8aa-
16E-	.	.	.
16F	4ee-	.	8gg
16G	.	.	.
16A-	.	.	4ff
16F	.	.	.
16BB-	8dd	.	.
16A-	.	.	.
8G	8ee-	.	16ee-
.	.	.	16bb-
8B-	8r	.	16gg
.	.	.	16ee-
8G	[4e-	.	16dd-
.	.	.	16bb-
8E-	.	.	16gg
.	.	.	16dd-
=13	=13	=13	=13
8A-	16e-]	1ryy	8cc
.	16e-	.	.
8r	16c	.	8aa-
.	16A-	.	.
4r	16G	.	8r
.	16e-	.	.
.	16c	.	8a-
.	16G	.	.
8r	8F	.	16dd
.	.	.	16aa-
8A-	8A-	.	16ff
.	.	.	16dd
8F	[4d	.	16cc
.	.	.	16aa-
8D	.	.	16ff
.	.	.	16cc
=14	=14	=14	=14
8G	16d]	1ryy	8bn
.	16d	.	.
8r	16Bn	.	8gg
.	16G	.	.
4r	16F	.	8r
.	16d	.	.
.	16B	.	8g
.	16F	.	.
8r	8En	.	16cc
.	.	.	16gg
8G	8G	.	16een
.	.	.	16cc
8En	[4c	.	16b-
.	.	.	16gg
8C	.	.	16ee
.	.	.	16b-
=15	=15	=15	=15
8F	4c]	1ryy	16an
.	.	.	16gg
8E-X	.	.	16cc
.	.	.	16g
8D	8Bn	.	16a-
.	.	.	16ff
8C	8c	.	16dd
.	.	.	16a-
8BBn	8d	.	16g
.	.	.	16ff
8GG	8r	.	16dd
.	.	.	16bn
8C	4r	.	16g
.	.	.	16ee-
8BB-	.	.	16cc
.	.	.	16g
=16	=16	=16	=16
8AAn	1ryy	1ryy	16f#
.	.	.	16ee-
8An	.	.	16cc
.	.	.	16an
8Bn	.	.	16fn
.	.	.	16dd
8G	.	.	16bn
.	.	.	16f
8c	.	.	16en
.	.	.	16dd
8G	.	.	16b
.	.	.	16g
8A-	.	.	16e-
.	.	.	16cc
8E-	.	.	16g
.	.	.	16e-
=17	=17	=17	=17
8F	2r	1ryy	16d
.	.	.	16cc
16E-	.	.	16a-
16F	.	.	16f
8G	.	.	16d
.	.	.	16bn
8GG	.	.	16an
.	.	.	16b
8C	16c	.	8cc
.	16B-X	.	.
8r	16A-X	.	8ff
.	16B-	.	.
4r	16G	.	8ee-
.	16c	.	.
.	16Bn	.	8dd
.	16c	.	.
=18	=18	=18	=18
*	*clefG2	*	*
1r	8e-	1ryy	16cc
.	.	.	16an
.	8d	.	16bn
.	.	.	16cc
.	8r	.	[4dd
.	16Bn	.	.
.	16G	.	.
.	8f	.	16dd]
.	.	.	16cc
.	8e-	.	16dd
.	.	.	16ee-
.	4dt	.	16ff
.	.	.	16dd
.	.	.	16g
.	.	.	16ff
=19	=19	=19	=19
1r	16c	1ryy	16ee-
.	16Bn	.	16gg
.	16c	.	16ee-
.	16e-	.	16dd
.	[4a-	.	16cc
.	.	.	16ccc
.	.	.	16aa-
.	.	.	16ff
.	8a-]	.	16dd
.	.	.	16ff
.	16B-	.	16dd
.	16d	.	16cc
.	[4g	.	16b-
.	.	.	16bb-
.	.	.	16gg
.	.	.	16ee-
=20	=20	=20	=20
2r	8g]	1ryy	16cc
.	.	.	16ee-
.	16A-	.	16cc
.	16c	.	16b-
.	[4f	.	16a-
.	.	.	16aa-
.	.	.	16ff
.	.	.	16dd
16G	16f]	.	4bn
16E-	16g	.	.
16D	4a-	.	.
16E-	.	.	.
16C	.	.	[4cc
16F	.	.	.
16E-	8g	.	.
16F	.	.	.
=21	=21	=21	=21
8A-	16f	1ryy	8cc]
.	16e-	.	.
8G	16f	.	8bn
.	16g	.	.
8r	[4an	.	16cc
.	.	.	16b
16F#	.	.	16cc
16D	.	.	16dd
8c	16a]	.	8ee-
.	16g	.	.
8B-	16a	.	8dd
.	16b-	.	.
4Ant	16cc	.	8een
.	16a	.	.
.	16d	.	8ff#
.	16cc	.	.
=22	=22	=22	=22
16G	4b-	1ryy	16gg
16B-	.	.	16dd
16A-X	.	.	16cc
16B-	.	.	16dd
16G	[4b-	.	16b-
16A-	.	.	16een
16F	.	.	16dd
16G	.	.	16ee
16En	16b-]	.	8gg
16c	16dd-	.	.
16A-	16cc	.	8ff
16F	16b-	.	.
16C	16a-	.	4r
16F	16g	.	.
16C	16f	.	.
16AA-	16g	.	.
=23	=23	=23	=23
16FF	4a-	1ryy	16ff
16A-	.	.	16cc
16G	.	.	16b-
16A-	.	.	16cc
16F	[4a-	.	16a-
16G	.	.	16dd
16E-	.	.	16cc
16F	.	.	16dd
16D	16a-]	.	8ff
16B-	16cc	.	.
16G	16b-	.	8ee-
16E-	16a-	.	.
16BB-	16g	.	4r
16E-	16f	.	.
16BB-	16e-	.	.
16GG	16f	.	.
=24	=24	=24	=24
8EE-	4g	1ryy	16r
.	.	.	16b-
8E-	.	.	16ee-
.	.	.	16cc
8F	16r	.	4dd-
.	16b-	.	.
8G	16g	.	.
.	16e-	.	.
8A-	8A-	.	16r
.	.	.	16cc
8F	8r	.	16ff
.	.	.	16ddn
8G	16r	.	4ee-
.	16cc	.	.
8An	16an	.	.
.	16f	.	.
=25	=25	=25	=25
8B-	8B-	1ryy	16r
.	.	.	16dd
8G	8r	.	16gg
.	.	.	16ee-
8An	16r	.	4ff
.	16dd	.	.
8Bn	16bn	.	.
.	16g	.	.
8c	8c	.	16r
.	.	.	16ee-
8C	8r	.	16gg
.	.	.	16bb-
8D	4r	.	16aa-
.	.	.	16ff
[8E-	.	.	16b-X
.	.	.	16gg
=26	=26	=26	=26
16E-]	8r	1ryy	8ff
16D	.	.	.
16C	8ff	.	8aa-
16D	.	.	.
16BB-	8ee-	.	8gg
16E-	.	.	.
16D	8a-	.	8ff
16E-	.	.	.
8G	8b-	.	16ee-
.	.	.	16cc
8F	16a-	.	16dd
.	16g	.	16ee-
8r	16a-	.	[4ff
.	16dd	.	.
16D	16b-	.	.
16BB-	16f	.	.
=27	=27	=27	=27
8A-	8d	1ryy	16ff]
.	.	.	16ee-
8G	4e-	.	16ff
.	.	.	16gg
4F	.	.	16aa-
.	.	.	16ff
.	8d	.	16b-
.	.	.	16aa-
8E-	8e-	.	16gg
.	.	.	16bb-
8EE-	8r	.	16gg
.	.	.	16ee-
8FF	16r	.	4dd-
.	16b-	.	.
8GG	16g	.	.
.	16e-	.	.
=28	=28	=28	=28
8AA-	8A-	1ryy	16cc
.	.	.	16ccc
8FF	8r	.	16aa-
.	.	.	16ff
8GG	16r	.	4ee-
.	16cc	.	.
8AAn	16an	.	.
.	16f	.	.
8BB-	8B-	.	16dd
.	.	.	16ff
8BB-	8r	.	16dd
.	.	.	16b-
8C	16r	.	[4a-
.	16f	.	.
8D	16d	.	.
.	16B-	.	.
=29	=29	=29	=29
*	*staff:5	*	*
*	*clefF4	*	*
[2E-	8E-	1ryy	16a-]
.	.	.	16g
.	8d-	.	16f
.	.	.	16g
.	8c	.	16e-
.	.	.	16a-
.	8B-	.	16g
.	.	.	16a-
4E-_	16A-	.	8cc
.	16G	.	.
.	16A-	.	8b-
.	16B-	.	.
16E-]	[4c	.	8r
16Dn	.	.	.
16E-	.	.	16an
16F	.	.	16f
=30	=30	=30	=30
8.G	16c]	1ryy	8ee-
.	16B-	.	.
.	16c	.	8dd
16F	16d	.	.
8E-	16e-	.	4ccT
.	16c	.	.
8F	16F	.	.
.	16e-	.	.
16BB-	8d	.	8b-
16F	.	.	.
16D	8r	.	8ff
16BB-	.	.	.
16AA-	4r	.	8dd
16F	.	.	.
16D	.	.	8b-
16AA-	.	.	.
=31	=31	=31	=31
*	*staff:4	*	*
*	*clefG2	*	*
8GG	16r	1ryy	[2bb-
.	16b-	.	.
8G	16ee-	.	.
.	16gg	.	.
8r	16dd-	.	.
.	16b-	.	.
8EE-	16dd-	.	.
.	16gg	.	.
16AA-	8cc	.	8bb-]
16E-	.	.	.
16C	8r	.	8ee-
16AA-	.	.	.
16GG	4r	.	8cc
16E-	.	.	.
16C	.	.	8a-
16GG	.	.	.
=32	=32	=32	=32
8FF	16r	1ryy	[2aa-
.	16a-	.	.
8F	16dd	.	.
.	16ff	.	.
8r	16cc	.	.
.	16a-	.	.
8DD	16cc	.	.
.	16ff	.	.
16GG	8b-	.	8aa-]
16D	.	.	.
16BB-	8r	.	8dd
16GG	.	.	.
16FF	4r	.	8b-
16D	.	.	.
16BB-	.	.	8g
16FF	.	.	.
=33	=33	=33	=33
16EEn	8r	1ryy	[4gg
16C	.	.	.
16GG	8b-	.	.
16EE	.	.	.
16FF	2a-	.	16gg]
16C	.	.	16cc
16AA-	.	.	16dd
16FF	.	.	16ee-
16DD	.	.	16ff
16BB-	.	.	16ee-
16FF	.	.	16dd
16DD	.	.	16cc
16EE-	8g	.	16b-
16BB-	.	.	16a-
16GG	[8e-	.	16b-
16EE-	.	.	16cc
=34	=34	=34	=34
8BB-	16e-]	1ryy	4f
.	16d	.	.
8F	16c	.	.
.	16d	.	.
8D	16B-	.	8r
.	16e-	.	.
8BB-	16d	.	8f
.	16e-	.	.
8An	8g-	.	8ee-
8A-	8f	.	8dd
16r	8r	.	4r
16A-	.	.	.
16F	16d	.	.
16D	16B-	.	.
=35	=35	=35	=35
8BB-	8a-	1ryy	8ff
8E-	8g	.	4ee-
8B-	4f	.	.
8Bn	.	.	8dd
[4c	4e-	.	16ee-
.	.	.	16gg
.	.	.	16ee-
.	.	.	16cc
16c]	8r	.	[4a-
16c	.	.	.
16A-	8f	.	.
16F	.	.	.
=36	=36	=36	=36
*	*staff:1	*	*
*	*clefF4	*	*
8D	4.B-	1ryy	16a-]
.	.	.	16ff
8BB-	.	.	16dd
.	.	.	16b-
16r	.	.	8g
16E-	.	.	.
16C	[8f	.	8ee-
16AA-	.	.	.
2BB-	16f]	.	4g
.	16d	.	.
.	16e-	.	.
.	[16B-	.	.
.	16B-]	.	4f
.	16c	.	.
.	16d	.	.
.	[16A-	.	.
=37	=37	=37	=37
*MM72	*MM72	*MM72	*MM72
*	*	*staff:2	*
*	*	*clefG2	*
*	*	*k[b-e-a-]	*
1EE-	16A-]	16r	1e-;
.	16d-	8.d-	.
.	16B-	.	.
.	[16G	.	.
*MM64	*MM64	*MM64	*MM64
.	16G]	8.c	.
.	16A-	.	.
*MM50	*MM50	*MM50	*MM50
.	8F	.	.
*MM40	*MM40	*MM40	*MM40
.	.	16c-	.
.	2G;	2B-;	.
==	==	==	==
*-	*-	*-	*-
!!!AFR:  fugue
!!!EFL:  14/96
!!!END:  1994/01/12/
!!!VID:  4251978656 Bach, BWV 852-02
!!!AST:  Baroque
!!!OCY:  Deutschland
!!!ODT:  1722///
!!!PDT:  1801///
!!!EED:  Walter Hewlett
!!!ENC:  Walter Hewlett
!!!YOR:  Bach Gesellschaft Edition xiv
!!!AFT:  enhanced SCORE
!!!RDT:  2011/10/07/ by Andreas Kornstaedt using massScr2hmd
!!!SCA1: Thematisch-systematisches Verzeichnis der musikalischen Werke 
!!!SCA2: Johann Sebastian Bach: Bach-Werke-Verzeichnis (Schmieder)
!!!YEC1: Copyright 1994, 2000 Center for Computer Assisted Research 
!!!YEC2: in the Humanities
!!!YEM1: Rights to all derivative editions reserved.
!!!YEM2: Refer to licensing agreement for further details.
!!!YEN:  United States of America
!!!ref:  @{OTL}, @{SCT}
!!muse2ps: T^@{OTL} @{ONM} in @{OKY}^C^J.S. Bach\n@{SCT}-@{OMV}^
!!muse2ps: u^@{OPR@ENG}, @{OVM@ENG}^j
